dist/img/logo-light.svg

<svg width="139" height="53" viewBox="0 0 139 53" fill="none" xmlns="http://www.w3.org/2000/svg">
<path d="M34.4312 39.2908C31.1151 34.3508 27.0665 29.9852 22.3624 26.3472C21.7841 25.8877 20.8587 25.9259 20.3188 26.5004C19.779 27.0748 19.7405 27.9173 20.2417 28.53C25.1772 34.4657 28.7245 41.2056 30.691 48.6348C30.8838 49.2858 31.4622 49.7453 32.1562 49.7453C32.1948 49.7453 32.2719 49.7453 32.3105 49.7453C33.0816 49.6687 33.6214 49.056 33.66 48.3284C33.7757 45.6861 34.1227 43.0437 34.6239 40.478C34.7396 40.0567 34.6625 39.6355 34.4312 39.2908Z" fill="white"/>
<path d="M66.8971 1.0341C66.6658 0.497973 66.0874 0.15332 65.509 0.15332C65.3162 0.15332 65.1234 0.191615 64.9306 0.268205C61.5761 1.60852 58.2986 3.29349 55.2525 5.28482C54.597 5.70607 53.9415 6.1656 53.3246 6.58685C42.1041 14.6288 34.4311 26.4236 31.6934 39.8267C31.1536 42.5457 30.8066 45.3412 30.6523 48.1367V48.2133C30.6523 48.3282 30.6523 48.4814 30.6909 48.5962C30.8451 49.1324 30.9608 49.6685 31.115 50.2429C31.1922 50.6259 31.4621 50.9705 31.8091 51.2003L31.9248 51.2769C32.0404 51.3535 32.1561 51.3918 32.2718 51.4301L35.742 52.5023C35.8963 52.5406 36.0505 52.5789 36.2047 52.5789C36.5518 52.5789 36.8602 52.464 37.1301 52.2725C37.5157 51.9662 37.7471 51.5066 37.7471 51.0471V50.7407C37.7471 50.4344 37.7471 50.0897 37.7471 49.7834C37.7471 48.4048 37.7856 46.9879 37.9013 45.6092C39.0195 31.6316 45.5358 18.8795 56.2936 9.72702C56.7948 9.30578 57.3347 8.84624 57.8745 8.425L57.913 8.3867C60.4964 6.35708 63.3112 4.55722 66.2416 3.02543C66.9357 2.60419 67.2441 1.7617 66.8971 1.0341Z" fill="white"/>
<path d="M5.08843 40.7074C4.4715 40.7074 3.85457 40.3627 3.5461 39.7883C1.54107 35.9205 0.5 31.6315 0.5 27.2659C0.5 12.2543 12.8386 0 27.9535 0C31.4623 0 34.894 0.651012 38.1714 1.95303C39.0583 2.29769 39.4824 3.29335 39.1354 4.17413C38.7883 5.05491 37.7858 5.47616 36.899 5.1315C34.0457 4.02095 31.0381 3.44653 27.9535 3.44653C14.728 3.44653 3.97024 14.1308 3.97024 27.2659C3.97024 31.0954 4.85708 34.7717 6.63076 38.1799C7.0549 39.0224 6.74644 40.0564 5.89816 40.5159C5.62825 40.6308 5.35834 40.7074 5.08843 40.7074Z" fill="white"/>
<path d="M59.0319 28.5681H58.415C58.5306 28.5681 58.6077 28.5298 58.7234 28.5298C58.8391 28.5298 58.9548 28.5298 59.0319 28.5681Z" fill="white"/>
<path d="M124.233 43.35C124.233 43.1968 124.233 43.0436 124.194 42.9288C123.963 40.746 123.192 38.9461 121.881 37.4526C120.3 35.691 118.218 34.772 115.635 34.772C113.09 34.772 110.969 35.6528 109.272 37.4143C107.576 39.1759 106.766 41.3204 106.766 43.8861C106.766 46.6051 107.614 48.7879 109.35 50.4728C111.085 52.1578 113.282 53.0003 115.943 53.0003C118.256 53.0003 120.223 52.5025 121.804 51.4302C122.228 51.1621 122.498 50.7026 122.498 50.1665C122.498 49.9367 122.421 49.6686 122.344 49.4772L122.112 49.1325C121.842 48.8262 121.418 48.6347 120.994 48.6347C120.801 48.6347 120.57 48.673 120.416 48.7496C120.3 48.8262 120.146 48.9028 119.992 48.9793C119.683 49.1325 119.413 49.2857 119.066 49.4006C118.179 49.7452 117.254 49.8984 116.367 49.8984C114.786 49.8984 113.475 49.4389 112.511 48.5198C111.509 47.6007 110.969 46.4519 110.815 45.1116H122.459C123.385 45.1116 124.194 44.3074 124.233 43.35ZM110.699 42.4309C110.815 41.2055 111.277 40.1332 112.126 39.2142C112.974 38.2951 114.131 37.8356 115.635 37.8356C117.215 37.8356 118.411 38.2951 119.22 39.2525C120.069 40.1715 120.493 41.2438 120.531 42.4692H110.699V42.4309Z" fill="white"/>
<path d="M105.532 37.0314C105.532 37.1463 105.532 37.2995 105.494 37.4144V37.4527L105.417 37.7207C105.417 37.7207 105.417 37.7207 105.417 37.759L101.484 50.2814L101.291 50.9325C100.867 51.8898 99.9029 52.5408 98.7847 52.5408C97.7436 52.5408 96.8182 51.9664 96.3555 51.1239L96.047 50.1666L92.7696 39.827L89.415 50.3197L89.1837 50.9325C88.7595 51.8898 87.7956 52.5408 86.6774 52.5408C85.6363 52.5408 84.7109 51.9664 84.2482 51.1239L83.9397 50.1283L80.0839 37.7973L79.9682 37.4144C79.9297 37.2995 79.9297 37.1846 79.9297 37.0314C79.9297 35.9975 80.778 35.155 81.819 35.155C82.6288 35.155 83.2843 35.6528 83.5542 36.3421L83.6698 36.6868L86.6774 47.0264L86.9087 47.7923L87.1401 47.0647L90.4561 36.9931L90.6489 36.4187C90.9574 35.7294 91.6514 35.2316 92.4226 35.1167H93.0395C93.8107 35.2316 94.5047 35.7294 94.8132 36.4187L95.006 36.9931L98.322 47.0647L98.5533 47.7923L98.7847 47.0264L101.792 36.7251L101.908 36.3038C102.178 35.6145 102.872 35.155 103.643 35.155C104.684 35.155 105.532 35.9975 105.532 37.0314Z" fill="white"/>
<path d="M83.6313 36.6865L83.5156 36.3418C83.5927 36.4567 83.6313 36.5716 83.6313 36.6865Z" fill="white"/>
<path d="M101.792 36.725C101.792 36.5718 101.87 36.4569 101.908 36.3037L101.792 36.725Z" fill="white"/>
<path d="M90.6488 36.457L90.4561 37.0315C90.4946 36.8017 90.5717 36.6485 90.6488 36.457Z" fill="white"/>
<path d="M93.0398 35.155H92.4229C92.5385 35.155 92.6156 35.1167 92.7313 35.1167C92.847 35.155 92.9241 35.155 93.0398 35.155Z" fill="white"/>
<path d="M95.0063 37.0315L94.8135 36.457C94.8906 36.6485 94.9677 36.8017 95.0063 37.0315Z" fill="white"/>
<path d="M77.501 30.4445V43.0818C77.501 46.1454 76.6142 48.558 74.8405 50.3578C73.0668 52.1194 70.4834 53.0385 67.0517 53.0385C63.6201 53.0385 61.0366 52.1577 59.263 50.3578C57.4893 48.5963 56.6025 46.1837 56.6025 43.1201V30.3679C56.7181 29.4106 57.4893 28.683 58.4532 28.5298H59.0702C60.0341 28.6447 60.8053 29.4106 60.921 30.3679V42.9286C60.921 44.8817 61.4608 46.4135 62.5404 47.524C63.6201 48.6728 65.1624 49.209 67.1289 49.209C69.0953 49.209 70.6377 48.6346 71.6787 47.524C72.7584 46.4135 73.2596 44.8434 73.2596 42.9286V30.4445C73.3753 29.4489 74.1465 28.683 75.149 28.5681H75.6502C76.6142 28.6447 77.3854 29.4489 77.501 30.4445Z" fill="white"/>
<path d="M128.899 28.5298C127.896 28.5298 127.048 29.2957 127.009 30.2913V50.7025C127.086 51.6981 127.896 52.464 128.899 52.464C129.901 52.464 130.749 51.6981 130.788 50.7025V30.2913C130.749 29.334 129.901 28.5298 128.899 28.5298Z" fill="white"/>
<path d="M136.611 28.5298C135.608 28.5298 134.76 29.2957 134.721 30.2913V50.7025C134.798 51.6981 135.608 52.464 136.611 52.464C137.613 52.464 138.461 51.6981 138.5 50.7025V30.2913C138.461 29.334 137.613 28.5298 136.611 28.5298Z" fill="white"/>
</svg>

<svg width="139" height="53" fill="none" xmlns="http://www.w3.org/2000/svg"><g clip-path="url(#clip0_124_4345)" fill="#fff"><path d="M34.431 39.29c-3.316-4.94-7.364-9.305-12.069-12.943-.578-.46-1.503-.421-2.043.153a1.515 1.515 0 00-.077 2.03c4.935 5.936 8.482 12.676 10.449 20.105.193.65.771 1.11 1.465 1.11h.154a1.487 1.487 0 001.35-1.417c.116-2.642.463-5.284.964-7.85a1.425 1.425 0 00-.193-1.187z"/><path d="M66.897 1.034c-.231-.536-.81-.88-1.388-.88-.193 0-.386.038-.578.114a55.157 55.157 0 00-9.678 5.017c-.656.421-1.312.88-1.928 1.302-11.22 8.042-18.894 19.837-21.632 33.24a59.713 59.713 0 00-1.04 8.31v.076c0 .115 0 .268.038.383.154.536.27 1.073.424 1.647.077.383.347.727.694.957l.116.077c.115.076.231.115.347.153l3.47 1.072c.154.039.309.077.463.077.347 0 .655-.115.925-.306.386-.307.617-.766.617-1.226v-1.264c0-1.378.039-2.795.154-4.174 1.118-13.977 7.635-26.73 18.393-35.882.5-.421 1.04-.88 1.58-1.302l.039-.038a54.041 54.041 0 018.329-5.362c.694-.42 1.002-1.263.655-1.99zM5.088 40.707a1.772 1.772 0 01-1.542-.919A27.186 27.186 0 01.5 27.266C.5 12.254 12.839 0 27.953 0c3.51 0 6.941.651 10.218 1.953a1.705 1.705 0 01.964 2.221c-.347.88-1.35 1.302-2.236.957a24.565 24.565 0 00-8.946-1.684C14.728 3.447 3.97 14.13 3.97 27.266c0 3.83.887 7.506 2.66 10.914a1.753 1.753 0 01-.732 2.336c-.27.115-.54.191-.81.191zm53.944-12.139h-.617c.116 0 .193-.038.308-.038.116 0 .232 0 .309.038zm65.201 14.782c0-.153 0-.306-.039-.421-.231-2.183-1.002-3.983-2.313-5.476-1.581-1.762-3.663-2.681-6.246-2.681-2.545 0-4.666.88-6.363 2.642-1.696 1.762-2.506 3.906-2.506 6.472 0 2.72.848 4.902 2.584 6.587 1.735 1.685 3.932 2.527 6.593 2.527 2.313 0 4.28-.498 5.861-1.57.424-.268.694-.727.694-1.264 0-.23-.077-.497-.154-.689l-.232-.344a1.522 1.522 0 00-1.118-.498c-.193 0-.424.038-.578.115-.116.076-.27.153-.424.23-.309.153-.579.306-.926.42a7.47 7.47 0 01-2.699.498c-1.581 0-2.892-.46-3.856-1.378-1.002-.92-1.542-2.068-1.696-3.408h11.644c.926 0 1.735-.805 1.774-1.762zm-13.534-.92c.116-1.224.578-2.297 1.427-3.216.848-.919 2.005-1.378 3.509-1.378 1.58 0 2.776.46 3.585 1.416.849.92 1.273 1.992 1.311 3.217h-9.832v-.038zm-5.167-5.399c0 .115 0 .269-.038.383v.039l-.077.268v.038l-3.933 12.522-.193.651a2.725 2.725 0 01-2.506 1.609 2.777 2.777 0 01-2.43-1.417l-.308-.957-3.277-10.34-3.355 10.493-.231.612a2.725 2.725 0 01-2.507 1.609 2.777 2.777 0 01-2.429-1.417l-.308-.996-3.856-12.33-.116-.384c-.038-.114-.038-.23-.038-.383 0-1.033.848-1.876 1.889-1.876.81 0 1.465.498 1.735 1.187l.116.345 3.007 10.34.232.765.231-.727 3.316-10.072.193-.574c.308-.69 1.002-1.187 1.774-1.302h.617c.77.115 1.465.612 1.773 1.302l.193.574 3.316 10.072.231.727.232-.766 3.007-10.3.116-.422c.27-.69.964-1.149 1.735-1.149 1.041 0 1.889.843 1.889 1.876z"/><path d="M83.631 36.687l-.115-.345c.077.115.115.23.115.345zm18.161.038c0-.153.078-.268.116-.421l-.116.421zm-11.143-.268l-.193.575c.039-.23.116-.383.193-.575zm2.391-1.302h-.617c.115 0 .193-.038.308-.038.116.038.193.038.309.038zm1.966 1.877l-.192-.575c.077.191.154.345.192.575zm-17.505-6.587v12.637c0 3.063-.887 5.476-2.66 7.276-1.774 1.761-4.358 2.68-7.79 2.68-3.43 0-6.014-.88-7.788-2.68-1.774-1.762-2.66-4.174-2.66-7.238V30.368c.115-.957.886-1.685 1.85-1.838h.617c.964.115 1.735.88 1.851 1.838v12.56c0 1.954.54 3.486 1.62 4.596 1.08 1.149 2.621 1.685 4.588 1.685 1.966 0 3.509-.574 4.55-1.685 1.08-1.11 1.58-2.68 1.58-4.595V30.444a2.126 2.126 0 011.89-1.876h.501c.964.077 1.735.88 1.851 1.877zm51.398-1.915c-1.003 0-1.851.766-1.89 1.761v20.412a1.891 1.891 0 001.89 1.761c1.002 0 1.85-.766 1.889-1.761V30.29c-.039-.957-.887-1.761-1.889-1.761z"/></g><defs><clipPath id="clip0_124_4345"><path fill="#fff" d="M0 0h139v53H0z"/></clipPath></defs></svg>
